X: 1870
T: Sidney Moore's Reel
B: australian traditional tunes wiki
M:4/4
L:1/8
R: March
Q: 1/4=100
K:G
V:1 
B>c|"G"db db db B>c|db db b2b>b|"D7"ba a^ga2a>b|"G"ag gB d2B>c|
"G"db db db B>c|db db b2b>b|"Am"ba ab c'e fg|"D7"a2g2"G"g2B>c|
"D7"d2d>^c dd ef|"G"gB (3cBA B2e>e|"Am"eA AB c2e>e|"D7"ed BA "G"G<B B>c|
"D7"d2d>^c dd ef|"G"gB (3cBA B2e>e|"Am"eA AB "D7"cE FD|"G"G6||
% abcbook-tune_id 6342d53a4ba38a4852c1fc8a


% abcbook-boost 0
% abcbook-tablature 
% abcbook-transpose 
% abcbook-lastupdated 1665324389448
% abcbook-soundfonts 
% abcbook-repeats 1
% NFF Book 2018

